X: 9006
T: Da Auld Resting Chair
R: barndance
M: 4/4
K: Gmajor
z2|(g3 a) (f3 g)|(d2 B2) (B2 G2)|c4 d4|^c4 d4|
(g3 a) (f3 g)|(d2 B2) (B2 G2)|(cd)(ec) d2 c2|B6:|
d2|(ed)(cB) B4|c4 B4|A4 (G2 B2)|^c4 d4|(ed)(cB) B4|
c4 B4|A2 (Bc) B2 c2|B6 d2|(ed)(cB) B4|c4 B4|
A4 (G2B2)|^c4 d4|(g3a) (f3 g)|(d2B2) (B2 G2)|(cd)(ec) (d2c2)|B6||

